X: 4650
T: Boxwood
R: jig
M: 6/8
K: Eminor
|:D|E2B BAB|E2c cBc|E2B E2c|E2B D2A|
E2B BAB|E2c cBc|E2B AFD|E3 E2:|
|:e|Bee fee|dBG FGA|E2B E2c|E2B D2A|
Bee fee|dBG FGA|dBG FED|E3 E2:|

